X:21
T:Tune for Frankie
C:Mairead Ni Mhaonaigh
N:For Frankie Kennedy
S:Altan:Blackwater
Z:robin.beech@mcgill.ca
R:slipjig
L:1/8
M:9/8
K:Dmin
d2g fdc A>GA | f>gf A>GA c>dc | A2A GAG G A/B/ c |
d2g fdc A>GA | f>gf A>GA c>dc | A2A GAG G A/B/ c ::
M:6/8
DGA Bdc | =BGE FED | F>EF G>FG | Add d3|
DGA Bdc | =BGE FED | fdc fcA | G>AG G3 :|
